dist/assets/img/first-screen/cup.svg

<svg width="37" height="43" viewBox="0 0 37 43" fill="none" xmlns="http://www.w3.org/2000/svg">
<path d="M18.4125 5.39199C15.4076 5.39199 12.963 7.83651 12.963 10.8414C12.963 13.8464 15.4076 16.2909 18.4125 16.2909C21.4168 16.2909 23.8619 13.8464 23.8619 10.8414C23.8619 7.8365 21.4168 5.39199 18.4125 5.39199ZM18.4125 14.4768C16.408 14.4768 14.7772 12.8459 14.7772 10.8414C14.7772 8.83695 16.408 7.20612 18.4125 7.20612C20.417 7.20612 22.0478 8.83695 22.0478 10.8414C22.0478 12.8459 20.417 14.4768 18.4125 14.4768Z" fill="white" stroke="white" stroke-width="0.3"/>
<path d="M35.0679 0.85H1.75707C1.25649 0.85 0.85 1.25649 0.85 1.75707C0.85 6.35341 1.58864 10.1881 2.91626 12.9545C4.2196 15.6703 6.10106 17.3742 8.42065 17.727V19.927C8.42065 25.1298 12.4201 29.4084 17.5054 29.8679V35.7111C15.3313 35.8659 13.823 36.5787 12.8533 37.5718C11.8633 38.5857 11.4489 39.8777 11.4489 41.1247C11.4489 41.6264 11.8555 42.0318 12.356 42.0318H24.469C24.9706 42.0318 25.3761 41.6263 25.3761 41.1247C25.3761 39.8777 24.9617 38.5857 23.9717 37.5718C23.002 36.5787 21.4937 35.8659 19.3196 35.7111V29.8679C24.4042 29.4077 28.4043 25.1294 28.4043 19.927V17.727C30.7239 17.3745 32.6054 15.6706 33.9087 12.9547C35.2364 10.1882 35.975 6.35337 35.975 1.75707C35.975 1.25662 35.5697 0.85 35.0679 0.85ZM4.38975 11.911C3.36822 9.62634 2.75751 6.46978 2.67409 2.66413H8.42082V15.892C6.77327 15.527 5.39043 14.1489 4.38975 11.911ZM21.9365 38.257C22.7321 38.7194 23.247 39.3799 23.4561 40.2174H13.3698C13.5789 39.3799 14.0939 38.7194 14.8896 38.257C15.7454 37.7596 16.9308 37.4891 18.4129 37.4891C19.8954 37.4891 21.0808 37.7596 21.9365 38.257ZM26.5906 19.9266C26.5906 24.4355 22.9218 28.1043 18.4129 28.1043C13.9041 28.1043 10.2352 24.4355 10.2352 19.9266V2.66413H26.5906V19.9266ZM32.4359 11.9109C31.4352 14.1488 30.0523 15.5269 28.4048 15.892V2.66413H34.1515C34.0681 6.46977 33.4574 9.62627 32.4359 11.9109Z" fill="white" stroke="white" stroke-width="0.3"/>
</svg>

<svg width="37" height="43" fill="none" xmlns="http://www.w3.org/2000/svg"><path d="M18.413 5.392a5.456 5.456 0 00-5.45 5.45 5.456 5.456 0 005.45 5.449 5.456 5.456 0 005.449-5.45 5.456 5.456 0 00-5.45-5.449zm0 9.085a3.64 3.64 0 01-3.636-3.636 3.64 3.64 0 013.636-3.635 3.64 3.64 0 013.635 3.635 3.64 3.64 0 01-3.635 3.636z" fill="#fff" stroke="#fff" stroke-width=".3"/><path d="M35.068.85H1.758a.907.907 0 00-.908.907c0 4.596.739 8.431 2.066 11.197 1.304 2.716 3.185 4.42 5.505 4.773v2.2c0 5.203 4 9.481 9.084 9.94v5.844c-2.174.155-3.682.868-4.652 1.86-.99 1.015-1.404 2.307-1.404 3.554 0 .501.406.907.907.907h12.113a.906.906 0 00.907-.907c0-1.247-.414-2.54-1.404-3.553-.97-.993-2.478-1.706-4.652-1.86v-5.844c5.084-.46 9.084-4.739 9.084-9.941v-2.2c2.32-.352 4.201-2.056 5.505-4.772 1.327-2.767 2.066-6.602 2.066-11.198 0-.5-.405-.907-.907-.907zM4.39 11.911C3.368 9.626 2.758 6.47 2.674 2.664h5.747v13.228c-1.648-.365-3.03-1.743-4.031-3.981zm17.546 26.346c.796.462 1.311 1.123 1.52 1.96H13.37c.209-.837.724-1.498 1.52-1.96.855-.497 2.04-.768 3.523-.768 1.482 0 2.668.27 3.523.768zm4.655-18.33c0 4.509-3.67 8.177-8.178 8.177-4.509 0-8.178-3.668-8.178-8.177V2.664h16.356v17.263zm5.845-8.016c-1 2.238-2.384 3.616-4.031 3.981V2.664h5.746c-.083 3.806-.694 6.962-1.715 9.247z" fill="#fff" stroke="#fff" stroke-width=".3"/></svg>
